Origami/64x64/apps/spaceview.svg

<svg width="64" height="64" version="1" xmlns="http://www.w3.org/2000/svg">
 <path d="m4.0507997 32.000415c-0.0118 0.333995-0.050799 0.66199-0.050799 0.999985-3e-7 15.511779 12.487821 27.9996 27.999599 27.9996s27.9996-12.487821 27.9996-27.9996c0-0.337995-0.04-0.66599-0.05-0.999985-0.527992 15.041785-12.775817 26.999614-27.9496 26.999614-15.174183 0-27.421608-11.957829-27.9496-26.999614z" style="opacity:.2"/>
 <rect transform="matrix(0,-1,-1,0,0,0)" x="-60" y="-60" width="55.999" height="55.999" rx="28" ry="28" style="fill:#5a9e0d"/>
 <g transform="matrix(0,-1.9999714,1.9999714,0,5.760572e-5,62.999971)" style="fill:#ffffff">
  <path d="m25 16c0-5.54-4.46-10-10-10s-10 4.46-10 10 4.46 10 10 10 10-4.46 10-10zm-3 0a7 7 0 0 1 -7 7 7 7 0 0 1 -7 -7 7 7 0 0 1 7 -7 7 7 0 0 1 7 7z" style="opacity:.2"/>
 </g>
 <g transform="matrix(0,-1.9999714,1.9999714,0,5.760572e-5,63.999971)" style="fill:#ffffff">
  <path transform="matrix(0,1,-1,0,32,0)" d="m16 6c-5.54 0-10 4.46-10 10s4.46 10 10 10 10-4.46 10-10h-3a7 7 0 0 1 -7 7 7 7 0 0 1 -7 -7 7 7 0 0 1 7 -7v-3z" style="fill:#aef260"/>
 </g>
 <path d="M 32 4 C 16.488222 4 4 16.488222 4 32 C 4 32.113554 4.0112846 32.224034 4.0175781 32.335938 C 4.3691163 17.134398 16.710946 5 32 5 C 47.289054 5 59.630884 17.134398 59.982422 32.335938 C 59.988797 32.224034 60 32.113554 60 32 C 60 16.488222 47.511778 4 32 4 z" style="fill:#ffffff;opacity:.2"/>
 <g transform="matrix(0,-1.9999714,1.9999714,0,5.760572e-5,63.999971)" style="fill:#ffffff">
  <path transform="matrix(0,1,-1,0,32,0)" d="m16 6v3a7 7 0 0 1 7 7h3c0-5.54-4.46-10-10-10z" style="fill:#ff9a1b"/>
 </g>
</svg>

<svg xmlns="http://www.w3.org/2000/svg" width="64" height="64" version="1">
 <path style="opacity:0.2" d="m 4.0507997,32.000415 c -0.0118,0.333995 -0.050799,0.66199 -0.050799,0.999985 C 4.0000004,48.512179 16.487822,61 31.9996,61 47.511378,61 59.9992,48.512179 59.9992,33.0004 c 0,-0.337995 -0.04,-0.66599 -0.05,-0.999985 C 59.421208,47.0422 47.173383,59.000029 31.9996,59.000029 16.825417,59.000029 4.5779921,47.0422 4.0499997,32.000415 Z"/>
 <rect style="fill:#5a9e0d" width="55.999" height="55.999" x="-60" y="-60" rx="28" ry="28" transform="matrix(0,-1,-1,0,0,0)"/>
 <g style="fill:#ffffff" transform="matrix(0,-1.9999714,1.9999714,0,5.760572e-5,62.999971)">
  <path style="opacity:0.2" d="M 25,16 C 25,10.46 20.54,6 15,6 9.46,6 5,10.46 5,16 c 0,5.54 4.46,10 10,10 5.54,0 10,-4.46 10,-10 z m -3,0 a 7,7 0 0 1 -7,7 7,7 0 0 1 -7,-7 7,7 0 0 1 7,-7 7,7 0 0 1 7,7 z"/>
 </g>
 <g style="fill:#ffffff" transform="matrix(0,-1.9999714,1.9999714,0,5.760572e-5,63.999971)">
  <path style="fill:#aef260" d="M 16,6 C 10.46,6 6,10.46 6,16 c 0,5.54 4.46,10 10,10 5.54,0 10,-4.46 10,-10 l -3,0 a 7,7 0 0 1 -7,7 7,7 0 0 1 -7,-7 7,7 0 0 1 7,-7 l 0,-3 z" transform="matrix(0,1,-1,0,32,0)"/>
 </g>
 <path style="opacity:0.2;fill:#ffffff" d="M 32 4 C 16.488222 4 4 16.488222 4 32 C 4 32.113554 4.0112846 32.224034 4.0175781 32.335938 C 4.3691163 17.134398 16.710946 5 32 5 C 47.289054 5 59.630884 17.134398 59.982422 32.335938 C 59.988797 32.224034 60 32.113554 60 32 C 60 16.488222 47.511778 4 32 4 z"/>
 <g style="fill:#ffffff" transform="matrix(0,-1.9999714,1.9999714,0,5.760572e-5,63.999971)">
  <path style="fill:#ff9a1b" d="m 16,6 0,3 a 7,7 0 0 1 7,7 l 3,0 C 26,10.46 21.54,6 16,6 Z" transform="matrix(0,1,-1,0,32,0)"/>
 </g>
</svg>
